!!!!SEGMENT: pl-wtm--1125-3623--001-003_rozycki-ludomir--deux-preludes-et-deux-nocturnes-op-3-no-3-nocturne.krn
!!!cenid: 19xx:135
!!!COM: Różycki, Ludomir
!!!COM-rismID: pe50045573
!!!CDT: 1883-1953
!!!CNT: Polish
!!!GTL: Deux Préludes et deux Nocturnes op. 3
!!!OTL: No. 3. Nocturne
!!!OMV: 003
!!!PDT: 1924
!!!AGN: Secular; Nocturne
!!!YEC: Copyright 2022 Narodowy Instytut Fryderyka Chopina (https://polishscores.org)
!!!YEM: License CC-BY-4.0 (https://creativecommons.org/licenses/by/4.0)
!!!SMS-siglum: PL-Wtm
!!!SMS-shelfmark: 1125 3623
!!!SMS-variant:
!!!SMS-altvar:
!!!SMS-shelfwork: 001-003 G
!!!NIFC-rismSourceID: 1001192241
!!!NIFC-rismChildID: 1001192241
!!!NIFC-islandoraID: pl-wtm:72722
!!!URL-pdf-islandora: https://repozytorium.nifc.pl/islandora/object/pl-wtm%3A72722/datastream/PDF/view
!!!URL-scan: https://polish.musicsources.pl/pl/lokalizacje/galeria/druki-muzyczne/18456/4 @EN{Scan on Polish Music Sources Website} @PL{Skany w portalu Dziedzictwo Muzyki Polskiej w otwartym dostępie}
!!!IIIF:
!!!ONB-nifc:
!!!OMD: Andante. M.M. 72
!!!AIN: 1 piano
!!!key: D
**kern	**kern	**dynam
*part1	*part1	*part1
*staff2	*staff1	*
*ICklav	*ICklav	*
*Ipiano	*Ipiano	*
*I"PIANO.	*I"PIANO.	*
*clefF4	*clefG2	*
*k[f#c#]	*k[f#c#]	*
*D:	*D:	*
*M4/4	*M4/4	*
*met(c)	*met(c)	*
=1	=1	=1
1r	(4a/	mf
.	8f#/L	.
.	8a/J	.
.	8ff#\L	.
.	8ee\	.
.	8dd\	.
.	8f#\J	.
=2	=2	=2
*ped	*	*
2r	2a/)	.
4DD~/ 4D	4A~/ 4cn 4e 4f#	.
*Xped	*	*
4AAA~/ 4AA	4G~/ 4B 4c#X 4f#	.
=3	=3	=3
*ped	*	*
4DDD~/ 4DD	4F#~/ 4A 4c# 4f#	.
4r	(8f#/L	.
.	8a/J	.
*Xped	*	*
2r	8ff#\L	.
.	8ee\	.
.	8dd\	.
.	8f#\J	.
!!LO:LB:g=original
=4	=4	=4
*ped	*	*
2r	2a/)	.
4DD~/ 4D	4A~/ 4cn 4e 4f#	.
*Xped	*	*
4AAA~/ 4AA	4G~/ 4B 4c#X 4f#	.
=5	=5	=5
*ped	*	*
4DDD~/ 4DD	4F#~/ 4G#X 4B 4f#	.
4r	(8f#/L	.
.	8b/J	<
2r	8ff#\L	[
.	8ee\	.
.	8dd\	>
*Xped	*	*
.	8f#\J	]
=6	=6	=6
*	*	*^
*ped	*	*	*
(8CC#\L	2.cc#\	>	.
8GG#X\	.	.	<
8E#X\	.	.	.
8en\J	.	.	.
8d\L	.	.	[
*Xped	*	*	*
8B\	.	.	.
8A\	[4b\)	]	>
8G#X\J)	.	.	]
*	*	*v	*v
!!LO:LB:g=original
=7	=7	=7
(8FF#\L	4b\]	.
8C#\	.	.
8F#\	(8a\L	.
8c#\J	8cc#\J	.
4f#\)	8aa\L	.
.	8gg#X\	.
4r	8ff#\	.
.	8a\J	>
=8	=8	=8
*ped	*	*
8r	4ccc#\)	]
(8FF#/L	.	.
.	(>16qqa/LL	.
.	16qqdd#X/	.
.	16qqff#/JJ	.
8C#/	4gg#X\)	pp
8F#/J	.	.
8c#\L	4ddd#X'\	.
8f#\J)	.	.
.	(>16qqa/LL	.
.	16qqdd#X/	.
.	16qqff#/	.
.	16qqgg#/JJ	.
4r	4aa\)	pp
*Xped	*	*
=9	=9	=9
*	*^	*
*ped	*	*	*
!LO:TX:b:i:t=rit._:ext=ud	!LO:TX:a:i:t=m.g.	!	!
4CC#:\ 4GG#X: 4C#: 4E#X: 4G#X: 4c#:	4ccc#:/	4e#X:\ 4g: 4cc#: 4ee#X:	f
(2en\ 2g	(>2cc#/ 2een 2gg#X	2.ryy	>
*Xped	*	*	*
4B\) 4d	4b/) 4dd 4ff#	.	]
!!LO:LB:g=original
=10	=10	=10	=10
*ped	*	*	*
!LO:TX:b:i:t=rit._:ext=ud	!LO:TX:a:i:t=m.g.	!	!
4CC#:\ 4GG#X: 4C#: 4E: 4G#X: 4c#:	4ccc#:/	4e#X:\ 4g#X: 4cc#: 4ee#X:	.
(2D\ 2F#	(>2d/ 2f# 2a	2.ryy	>
*Xped	*	*	*
4GGn/) 4D 4Gn	4B/) 4f# 4b	.	]
*	*v	*v	*
=11	=11	=11
!	!LO:TX:a:B:t=Più mosso.	!
8r	4r	.
(8FF#/L	.	f
8C#/	2c#~/ 2cc#	>
8A#X/J)	.	.
8A#\	.	.
(8FFF#/L	.	.
8FF#/	4c#/ 4cc#	]
8C#/J)	.	.
=12	=12	=12
8r	4r	.
(8FF#/L	.	.
8C#/	2c#~/ 2cc#	>
8A#X/J)	.	.
8A#\	.	.
(8FFF#/L	.	.
8FF#/	4c#/ 4cc#	]
8C#/J)	.	.
!!LO:PB:g=original
=13	=13	=13
*ped	*	*
!	!LO:TX:a:B:t=Tempo I.	!
4F#\ 4c#	4e/ 4a 4ee	.
4r	(8cc#\L	.
.	8ee\J	.
2r	8ccc#\L	.
.	8bb\	.
.	8aa\	.
*Xped	*	*
.	8cc#\J)	.
=14	=14	=14
!	!LO:TX:a:B:t=Più mosso.	!
8r	4r	.
(8AA\L	.	.
8E\	2e~/ 2ee	>
8c#\J)	.	.
8c#\	.	.
(8AAA/L	.	.
8AA/	4e/ 4ee	]
8E/J)	.	.
=15	=15	=15
8r	4r	.
(8AA\L	.	.
8E\	2e~/ 2ee	>
8c#\J)	.	.
8c#\	.	.
(8AAA/L	.	.
8AA/	4e/ 4ee	]]
8E/J)	.	.
!!LO:LB:g=original
=16	=16	=16
!	!LO:TX:a:B:t=Tempo I.	!
4A\ 4e	4g\ 4ccn 4gg	.
4r	(8ee\L	.
.	8gg\J	.
2r	8eee\L	.
.	8ddd\	.
.	8cccn\	.
.	8ee\J	.
=17	=17	=17
*ped	*	*
!	!LO:TX:a:i:t=allaegando	!
(8CCn\L 8Cn	4b\) 4ee-X 4gg 4bbn	.
8C\	.	.
8G\	2gg\ 2bb-X 2eee-X 2ggg	>
8e-X\J	.	.
8e-\)	.	.
(8CC/L	.	.
8C/	[4ffn\ [>4gg [4bb- [4fffn	]]
8G/J)	.	.
=18	=18	=18
8r	4ff\] 4gg] 4bb-] 4fff]	.
(8Cn\L	.	.
8G\	4ee-X^\ 4gg 4bb-X 4eee-X	.
8e-X\J)	.	.
8e-\	4b-X^\ 4ee- 4gg 4bb-	.
(8CC#/L	.	.
8C/	4g^\ 4b- 4ee- 4gg	.
8G/J)	.	.
*Xped	*	*
!!LO:LB:g=original
=19	=19	=19
*ped	*	*
!	!LO:TX:a:B:t=Tempo I.	!
4GGG'/ 4GG	4f#\ 4b-X 4dd 4ff#	fff
8FF#\L	8F#<^/L	.
8AA\J	8A<^/J	.
8F#\L	8f#<^/L	.
*Xped	*	*
8E\	8e<^/	.
8D\	8d<^/	.
8FF#\J	8F#<^/J	.
=20	=20	=20
*^	*	*
*ped	*	*	*
4r	1AA^ 1A	4r	.
4G\ 4B 4c# 4e	.	4g\ 4b 4cc# 4ee	<
4A-X\ 4cn 4d 4fn	.	4a-X\ 4ccn 4dd 4ffn	.
*Xped	*	*	*
4An\ 4c#X 4d#X 4f#X	.	4an\ 4cc#X 4dd#X 4ff#X	[
*v	*v	*	*
=21	=21	=21
4A\ 4B-X 4dn 4e 4g	4b-X\ 4ddn 4ee 4gg	.
8GGG\L 8GG	8G</L	ffff
8BBB-X\J 8BB-X	8B-X</J	.
8DD\L 8D	8d</L	.
8CCn\ 8Cn	8cn</	.
8BBB-\ 8BB-	8B-</	.
8DDD\J 8DD	8D</J	.
!!LO:LB:g=original
=22	=22	=22
*ped	*	*
(2FFFn\ 2FFn	4Fn</	.
.	((4B-X/ 4d 4a-X 4b-X	>
*Xped	*	*
4EE\ 4E	4Bn/ 4c# 4g 4bn	.
4EE-X\) 4E-X	4cn/)) 4g 4an 4ccn	]
=23	=23	=23
*	*	*^
!	!LO:TX:a:i:t=poco più lento, tranquillo	!	!
4r	2r	.	.
*ped	*	*	*
!	!	!LO:DY:b	!
(8DD/L	.	p	<
8AA/J	.	.	.
8F#/L	4r	.	[
8E/	.	.	>
!	!	!LO:DY:a:rj	!
8D/	(4ff#\	mf >	.
*Xped	*	*	*
8AA/J)	.	.	]
=24	=24	=24	=24
4r	2f#/)	]	.
*ped	*	*	*
(8DD/L	.	.	<
8BB-X/J	.	.	[
8F#\L	4r	.	>
8E\	.	.	.
8D\	(4ff#\	>	.
*Xped	*	*	*
8BB-\J)	.	.	]
=25	=25	=25	=25
4r	2f#/)	]	.
*ped	*	*	*
(8DD/L	.	.	<
8BBn/J	.	.	[
8F#\L	4r	.	>
*Xped	*	*	*
8E\	.	.	.
8D\	(4ff#\	.	.
8BB\J)	.	.	]
*	*	*v	*v
!!LO:LB:g=original
=26	=26	=26
*	*	*^
4r	2f#/)	.	.
(8DD/L	.	.	.
8GG/J	.	.	.
8F#/L	4r	.	.
8E/	.	.	.
8D/	(4ff#\	>	.
8GG/J)	.	.	.
=27	=27	=27	=27
!	!	!	!LO:HP:a:t=dim._:ext=ud
4r	2f#/)	]	>
(8DD/L	.	.	.
8AA/J	.	.	.
8F#/L	4r	.	.
8E/	.	.	.
8D/	(4ff#\	>	.
8AA/J)	.	.	.
=28	=28	=28	=28
4r	2f#/)	]	.
(8DD/L	.	.	.
8AA/J	.	.	.
8F#/L	4r	.	.
8E/	.	.	.
!	!	!LO:DY:a:rj	!
8D/	[4ff#\	mf	.
8AA/J)	.	.	]]
*	*	*v	*v
=29	=29	=29
1DDD 1DD 1AA 1D 1A	1ff#]	ppp
==	==	==
*-	*-	*-
!!!system-decoration: {(s1,s2)}
!!!RDF**kern: < = below
!!!RDF**kern: > = above
!!!ENC: Andrzej Gręziak
!!!END: 2023-10-12
!!!EED: Marta Chmielewska
!!!EEV: 2023-10-23
